Sources/FrostedUI/Resources/Icons.xcassets/thumbUpFilled32.imageset/thumb-up-filled-32.svg

<svg width="32" height="32" viewBox="0 0 32 32" fill="none" xmlns="http://www.w3.org/2000/svg" data-fui-icon="true">
  <path
    fill-rule="evenodd"
    clip-rule="evenodd"
    d="M8.71425 13.5833H4.99984C3.84926 13.5833 2.9165 14.516 2.9165 15.6666V25.6666C2.9165 26.8172 3.84926 27.75 4.99984 27.75H23.2292C25.5766 27.75 27.5719 26.0352 27.925 23.7145L29.041 16.3812C29.4785 13.5063 27.2531 10.9166 24.345 10.9166H18.2306L18.8631 6.85964C19.1866 4.7855 17.5756 2.91663 15.4812 2.91663C14.7022 2.91663 13.9852 3.35141 13.6275 4.04588L8.71425 13.5833ZM8.24984 26.25V15.0833H4.99984C4.67767 15.0833 4.4165 15.3444 4.4165 15.6666V25.6666C4.4165 25.9888 4.67767 26.25 4.99984 26.25H8.24984Z"
    fill="currentColor"
  />
</svg>

<svg xmlns="http://www.w3.org/2000/svg" width="32" height="32" fill="none" data-fui-icon="true" viewBox="0 0 32 32"><path fill="currentColor" fill-rule="evenodd" d="M8.714 13.583H5c-1.15 0-2.083.933-2.083 2.084v10c0 1.15.932 2.083 2.083 2.083h18.23a4.75 4.75 0 0 0 4.695-4.035l1.116-7.334a4.75 4.75 0 0 0-4.696-5.464h-6.114l.632-4.057a3.42 3.42 0 0 0-3.382-3.943c-.779 0-1.496.434-1.854 1.129zM8.25 26.25V15.083H5a.583.583 0 0 0-.583.584v10c0 .322.26.583.583.583z" clip-rule="evenodd"/></svg>
